X:4
T:Surprize THO3.004, The
O:England;London
M:C|
L:1/8
Z:vmp. Peter Dunk 2011.from a transcription by Fynn Titford-Mock 2006-9
B:Thompson's Compleat Collection of 200 Favourite Country Dances Vol. III.1765-72
Q:1/2=70
K:A
A2 e2 Tc3 B|(A/B/c) BA GF E2|A2 e2 Tc3 B|(A/B/c) EG A4:|
|:(c/B/G) AA (c/B/G) AA|(A/B/c) BA B2E2|\
A2a2edcB|A2a2edcB|(A/B/c) EG A4:|

